X:34
T:Rough and Smooth
M:2/4
L:1/8
B:Thompson's Compleat Collection of 200 Favourite Country Dances, vol. 1 (London, 1757)
Z:Transcribed and edited by Fynnian Titford-Mock, 2007
Z:abc's:AK/Fiddler's Companion
K:G
d|e>de>f|g>GG>d|e>de>f|g>GG>g|f>ed>c|(3BAG (3G2A|B/G/B/d/ |{B}A3:|
|:g|f>de>f|g3 =f|e>cG>B|c3  g|f>dA>^c|d3 =c|(3Bdg (3agf|g3:|

